Adwaita++/mimetypes/16/text-x-changelog.svg

<svg height="16" viewBox="0 0 16 16" width="16" xmlns="http://www.w3.org/2000/svg">
  <path d="m16 0h-3.173554v3.692308h3.173554zm-5.289256 0h-10.710744v3.692308h10.710744zm5.289256 6.153846h-3.173554v3.692308h3.173554zm-5.289256 0h-10.710744v3.692308h10.710744zm5.289256 6.153846h-3.173554v3.692308h3.173554zm-5.289256 0h-10.710744v3.692308h10.710744z" fill="#474747" fill-rule="evenodd"/>
</svg>

<svg xmlns="http://www.w3.org/2000/svg" style="isolation:isolate" width="16" height="16" version="1.1" viewBox="0 0 16 16">
 <defs>
  <style id="current-color-scheme" type="text/css">
   .ColorScheme-Text { color:#474747; } .ColorScheme-Highlight { color:#5294e2; }
  </style>
  <linearGradient id="arrongin" x1="0%" x2="0%" y1="0%" y2="100%">
   <stop style="stop-color:#dd9b44" id="stop3" offset="0%"/>
   <stop style="stop-color:#ad6c16" id="stop5" offset="100%"/>
  </linearGradient>
  <linearGradient id="aurora" x1="0%" x2="0%" y1="0%" y2="100%">
   <stop style="stop-color:#09D4DF" id="stop8" offset="0%"/>
   <stop style="stop-color:#9269F4" id="stop10" offset="100%"/>
  </linearGradient>
  <linearGradient id="fitdance" x1="0%" x2="0%" y1="0%" y2="100%">
   <stop style="stop-color:#1AD6AB" id="stop13" offset="0%"/>
   <stop style="stop-color:#329DB6" id="stop15" offset="100%"/>
  </linearGradient>
  <linearGradient id="oomox" x1="0%" x2="0%" y1="0%" y2="100%">
   <stop style="stop-color:#efefe7" id="stop18" offset="0%"/>
   <stop style="stop-color:#8f8f8b" id="stop20" offset="100%"/>
  </linearGradient>
  <linearGradient id="rainblue" x1="0%" x2="0%" y1="0%" y2="100%">
   <stop style="stop-color:#00F260" id="stop23" offset="0%"/>
   <stop style="stop-color:#0575E6" id="stop25" offset="100%"/>
  </linearGradient>
  <linearGradient id="sunrise" x1="0%" x2="0%" y1="0%" y2="100%">
   <stop style="stop-color:#FF8501" id="stop28" offset="0%"/>
   <stop style="stop-color:#FFCB01" id="stop30" offset="100%"/>
  </linearGradient>
  <linearGradient id="telinkrin" x1="0%" x2="0%" y1="0%" y2="100%">
   <stop style="stop-color:#b2ced6" id="stop33" offset="0%"/>
   <stop style="stop-color:#6da5b7" id="stop35" offset="100%"/>
  </linearGradient>
  <linearGradient id="60spsycho" x1="0%" x2="0%" y1="0%" y2="100%">
   <stop style="stop-color:#df5940" id="stop38" offset="0%"/>
   <stop style="stop-color:#d8d15f" id="stop40" offset="25%"/>
   <stop style="stop-color:#e9882a" id="stop42" offset="50%"/>
   <stop style="stop-color:#279362" id="stop44" offset="100%"/>
  </linearGradient>
  <linearGradient id="90ssummer" x1="0%" x2="0%" y1="0%" y2="100%">
   <stop style="stop-color:#f618c7" id="stop47" offset="0%"/>
   <stop style="stop-color:#94ffab" id="stop49" offset="20%"/>
   <stop style="stop-color:#fbfd54" id="stop51" offset="50%"/>
   <stop style="stop-color:#0f83ae" id="stop53" offset="100%"/>
  </linearGradient>
  <linearGradient id="cyberneon" x1="0%" x2="0%" y1="0%" y2="100%">
   <stop style="stop-color:#0abdc6" id="stop56" offset="0"/>
   <stop style="stop-color:#ea00d9" id="stop58" offset="1"/>
  </linearGradient>
 </defs>
 <path style="fill:currentColor;fill-rule:evenodd" class="ColorScheme-Text" d="M 16,0 H 12.826446 V 3.692308 H 16 V 0 0 0 0 Z M 10.710744,0 H 0 V 3.692308 H 10.710744 V 0 0 0 0 Z M 16,6.153846 H 12.826446 V 9.846154 H 16 v -3.692308 0 0 z m -5.289256,0 H 0 v 3.692308 h 10.710744 v -3.692308 0 z M 16,12.307692 H 12.826446 V 16 H 16 v -3.692308 z m -5.289256,0 H 0 V 16 h 10.710744 z"/>
</svg>
